packages/foundations/assets/icons/functional/images/technology/power_socket_24.svg

<svg width="24" height="24" viewBox="0 0 24 24" fill="none" xmlns="http://www.w3.org/2000/svg">
<g clip-path="url(#clip0_187_606)">
<path fill-rule="evenodd" clip-rule="evenodd" d="M2 16.9688V5C2 3.3438 3.3438 2 5 2H16.9688C18.6562 2 20 3.3438 20 5V11C20 11.6562 19.4688 12.0625 18.9688 12.0625C18.4688 12.0625 18 11.7188 18 11V5C18 4.4688 17.5312 4 16.9688 4H5C4.4375 4 4 4.4688 4 5V16.9688C4 17.5312 4.4375 18 5 18H10.4688C11.0312 18 11.4688 18.4375 11.4688 18.9688C11.4688 19.5312 11.0312 20 10.4688 20H5C3.3438 20 2 18.6562 2 16.9688ZM10.9841 6C13.7461 6 16 8.21519 16 11C16 13.7848 13.7461 16 10.9841 16C8.19044 16 6 13.7848 6 11C6 8.21519 8.19044 6 10.9841 6ZM11.0155 8C9.33675 8 8 9.3438 8 11C8 12.6562 9.33675 14 11.0155 14C12.6321 14 14 12.6562 14 11C13.969 9.3438 12.6321 8 11.0155 8ZM8.7812 11C8.7812 10.4375 9.2188 10 9.7812 10C10.3438 10 10.7812 10.4375 10.7812 11C10.7812 11.5625 10.3438 12 9.7812 12C9.2188 12 8.7812 11.5625 8.7812 11ZM11.1875 11C11.1875 10.4375 11.625 10 12.1875 10C12.7188 10 13.1875 10.4375 13.1875 11C13.1875 11.5625 12.7188 12 12.1875 12C11.625 12 11.1875 11.5625 11.1875 11ZM16.7812 13.5C17.0312 13.5 17.25 13.5625 17.5 13.7812L18.0938 14.375L18.4062 14.0625C18.5938 13.875 18.8438 13.7812 19.0938 13.7812C19.3438 13.7812 19.625 13.875 19.8125 14.0625L20.9062 15.1562C21.5625 15.7812 21.9062 16.6562 21.9062 17.5312C21.9062 18.3125 21.625 19.0938 21.125 19.7188L21.7188 20.2812C21.9062 20.4688 22 20.7188 22 20.9375C22 21.5 21.5312 22 21 22C20.75 22 20.5312 21.9375 20.3125 21.7188L19.7188 21.1562C19.0938 21.6875 18.3438 22 17.5312 22C16.5 22 15.6562 21.6562 15.0312 21.0312L13.9375 19.9062C13.75 19.7188 13.6562 19.5 13.6562 19.2188C13.6562 18.9688 13.75 18.6875 13.9375 18.5L14.25 18.2188L13.6562 17.625C13.4375 17.4062 13.3438 17.1562 13.3438 16.9375C13.3438 16.4062 13.8438 15.9375 14.375 15.9375C14.5938 15.9375 14.8438 16 15.0625 16.1875L15.6562 16.7812L16.6875 15.7812L16.0938 15.2188C15.875 15 15.7812 14.7812 15.7812 14.5312C15.7812 14 16.25 13.5 16.7812 13.5ZM19.0938 16.1875L16.0625 19.2188L16.4375 19.625C16.6875 19.875 17.0312 20 17.375 20C17.8438 20 18.2812 19.8125 18.5938 19.5L19.375 18.7188C19.6875 18.4062 19.875 18 19.875 17.5625C19.875 17.2188 19.7188 16.875 19.4688 16.5938L19.0938 16.1875Z" fill="#1A1C1F"/>
</g>
<defs>
<clipPath id="clip0_187_606">
<rect width="24" height="24" fill="white"/>
</clipPath>
</defs>
</svg>

<svg xmlns="http://www.w3.org/2000/svg" width="24" height="24" fill="none"><g clip-path="url(#a)"><path fill="#1A1C1F" fill-rule="evenodd" d="M2 16.969V5a3 3 0 0 1 3-3h11.969A3.01 3.01 0 0 1 20 5v6c0 .656-.531 1.063-1.031 1.063S18 11.719 18 11V5c0-.531-.469-1-1.031-1H5c-.562 0-1 .469-1 1v11.969C4 17.53 4.438 18 5 18h5.469a.98.98 0 0 1 1 .969c0 .562-.438 1.031-1 1.031H5c-1.656 0-3-1.344-3-3.031M10.984 6A5 5 0 0 1 16 11c0 2.785-2.254 5-5.016 5C8.19 16 6 13.785 6 11s2.19-5 4.984-5m.031 2a3 3 0 1 0 0 6C12.633 14 14 12.656 14 11c-.031-1.656-1.368-3-2.985-3m-2.234 3c0-.562.438-1 1-1s1 .438 1 1-.437 1-1 1-1-.437-1-1m2.406 0c0-.562.438-1 1-1 .532 0 1 .438 1 1s-.468 1-1 1c-.562 0-1-.437-1-1m5.594 2.5c.25 0 .469.063.719.281l.594.594.312-.312a.97.97 0 0 1 .688-.282c.25 0 .531.094.718.281l1.094 1.094c.657.625 1 1.5 1 2.375 0 .782-.281 1.563-.781 2.188l.594.562a.95.95 0 0 1 .281.657C22 21.5 21.531 22 21 22a.9.9 0 0 1-.687-.281l-.594-.563c-.625.532-1.375.844-2.188.844-1.031 0-1.875-.344-2.5-.969l-1.094-1.125a.92.92 0 0 1-.28-.687c0-.25.093-.532.28-.719l.313-.281-.594-.594c-.219-.219-.312-.469-.312-.687 0-.532.5-1 1.031-1 .219 0 .469.062.688.25l.593.593 1.031-1-.593-.562c-.219-.219-.313-.438-.313-.688 0-.531.469-1.031 1-1.031m2.313 2.688-3.032 3.03.375.407c.25.25.594.375.938.375.469 0 .906-.187 1.219-.5l.781-.781c.313-.313.5-.719.5-1.157 0-.343-.156-.687-.406-.968z" clip-rule="evenodd"/></g><defs><clipPath id="a"><path fill="#fff" d="M0 0h24v24H0z"/></clipPath></defs></svg>
